svgs/thin/person-harassing.svg

<svg xmlns="http://www.w3.org/2000/svg" viewBox="0 0 576 512"><!--! Font Awesome Pro 6.4.0 by @fontawesome - https://fontawesome.com License - https://fontawesome.com/license (Commercial License) Copyright 2023 Fonticons, Inc. --><path d="M232 56a40 40 0 1 0 -80 0 40 40 0 1 0 80 0zm-96 0a56 56 0 1 1 112 0A56 56 0 1 1 136 56zM104 248V480c0 8.8 7.2 16 16 16s16-7.2 16-16V360c0-13.3 10.7-24 24-24s24 10.7 24 24V480c0 8.8 7.2 16 16 16s16-7.2 16-16V248c0-4.4 3.6-8 8-8s8 3.6 8 8V480c0 17.7-14.3 32-32 32s-32-14.3-32-32V360c0-4.4-3.6-8-8-8s-8 3.6-8 8V480c0 17.7-14.3 32-32 32s-32-14.3-32-32V248c0-4.4 3.6-8 8-8s8 3.6 8 8zm37.1-104c-21.5 0-41.1 12.3-50.4 31.7L23.2 315.5c-1.9 4-6.7 5.6-10.7 3.7s-5.6-6.7-3.7-10.7L76.3 168.7c12-24.9 37.2-40.7 64.8-40.7h43.6c24.1 0 46.6 12.1 60 32.2l81.9 123.4c2.4 3.7 1.4 8.6-2.2 11.1s-8.6 1.4-11.1-2.2L231.4 169c-10.4-15.6-27.9-25-46.7-25H141.1zM452.7 414.1l-41.4-41.4c-3.6-3.6-8.8-5.3-13.9-4.5s-9.4 4-11.7 8.6l-48 96c-4 7.9-.7 17.5 7.2 21.5s17.5 .7 21.5-7.2l28.1-56.3c2.3-4.6 6.7-7.8 11.7-8.6s10.2 .8 13.9 4.5l54.7 54.7c9.4 9.4 22.1 14.6 35.3 14.6c27.6 0 49.9-22.4 49.9-49.9V344c0-22.1-17.9-40-40-40s-40 17.9-40 40v58.7c0 6.5-3.9 12.3-9.9 14.8s-12.9 1.1-17.4-3.5zM464 240a32 32 0 1 0 -64 0 32 32 0 1 0 64 0zm-.6 252.7l-42.7-42.7L408.8 438l-7.5 15.1-20.6 41.2c-7.9 15.8-27.1 22.2-42.9 14.3s-22.2-27.1-14.3-42.9l48-96c4.6-9.2 13.3-15.6 23.5-17.3s20.5 1.7 27.8 9L448 386.7l16 16V380.1 344c0-30.9 25.1-56 56-56s56 25.1 56 56V446.1c0 36.4-29.5 65.9-65.9 65.9c-17.5 0-34.3-6.9-46.6-19.3zM432 192a48 48 0 1 1 0 96 48 48 0 1 1 0-96zM296 48c0-4.4 3.6-8 8-8h56c4.4 0 8 3.6 8 8s-3.6 8-8 8H304c-4.4 0-8-3.6-8-8zm-12.4 56.8l48 24c4 2 5.6 6.8 3.6 10.7s-6.8 5.6-10.7 3.6l-48-24c-4-2-5.6-6.8-3.6-10.7s6.8-5.6 10.7-3.6z"/></svg>

<svg xmlns="http://www.w3.org/2000/svg" viewBox="0 0 576 512"><!--! Font Awesome Pro 6.3.0 by @fontawesome - https://fontawesome.com License - https://fontawesome.com/license (Commercial License) Copyright 2023 Fonticons, Inc. --><path d="M247.1 56C247.1 86.93 222.9 112 191.1 112C161.1 112 135.1 86.93 135.1 56C135.1 25.07 161.1 0 191.1 0C222.9 0 247.1 25.07 247.1 56zM191.1 16C169.9 16 151.1 33.91 151.1 56C151.1 78.09 169.9 96 191.1 96C214.1 96 231.1 78.09 231.1 56C231.1 33.91 214.1 16 191.1 16V16zM104 480C104 488.8 111.2 496 120 496C128.8 496 136 488.8 136 480V360C136 346.7 146.7 336 160 336C173.3 336 184 346.7 184 360V480C184 488.8 191.2 496 200 496C208.8 496 216 488.8 216 480V248C216 243.6 219.6 240 224 240C228.4 240 232 243.6 232 248V480C232 497.7 217.7 512 200 512C182.3 512 168 497.7 168 480V360C168 355.6 164.4 352 160 352C155.6 352 152 355.6 152 360V480C152 497.7 137.7 512 120 512C102.3 512 88 497.7 88 480V248C88 243.6 91.59 240 96 240C100.4 240 104 243.6 104 248V480zM141.1 144C119.6 144 100 156.3 90.67 175.7L23.21 315.5C21.29 319.5 16.5 321.1 12.53 319.2C8.546 317.3 6.877 312.5 8.797 308.5L76.26 168.7C88.27 143.8 113.5 128 141.1 128H184.8C208.9 128 231.4 140.1 244.7 160.2L326.7 283.6C329.1 287.3 328.1 292.2 324.4 294.7C320.7 297.1 315.8 296.1 313.3 292.4L231.4 169C221 153.4 203.5 144 184.8 144L141.1 144zM463.4 492.7L408.8 438L380.6 494.3C372.7 510.1 353.5 516.5 337.7 508.6C321.9 500.7 315.5 481.5 323.4 465.7L371.4 369.7C375.1 360.5 384.7 354.1 394.9 352.4C405 350.8 415.4 354.1 422.6 361.4L464 402.7V344C464 313.1 489.1 288 520 288C550.9 288 576 313.1 576 344V446.1C576 482.5 546.5 512 510.1 512C492.6 512 475.8 505.1 463.4 492.7V492.7zM411.3 372.7C407.7 369 402.5 367.4 397.4 368.2C392.4 369 387.1 372.2 385.7 376.8L337.7 472.8C333.7 480.7 336.9 490.4 344.8 494.3C352.7 498.3 362.4 495.1 366.3 487.2L394.5 430.9C396.8 426.3 401.1 423.1 406.2 422.2C411.3 421.4 416.4 423.1 420.1 426.7L474.7 481.4C484.1 490.7 496.8 496 510.1 496C537.6 496 560 473.6 560 446.1V344C560 321.9 542.1 304 520 304C497.9 304 480 321.9 480 344V402.7C480 409.2 476.1 415 470.1 417.5C464.1 420 457.3 418.6 452.7 414.1L411.3 372.7zM384 240C384 213.5 405.5 192 432 192C458.5 192 480 213.5 480 240C480 266.5 458.5 288 432 288C405.5 288 384 266.5 384 240zM432 208C414.3 208 400 222.3 400 240C400 257.7 414.3 272 432 272C449.7 272 464 257.7 464 240C464 222.3 449.7 208 432 208zM296 48C296 43.58 299.6 40 304 40H360C364.4 40 368 43.58 368 48C368 52.42 364.4 56 360 56H304C299.6 56 296 52.42 296 48zM331.6 128.8C335.5 130.8 337.1 135.6 335.2 139.6C333.2 143.5 328.4 145.1 324.4 143.2L276.4 119.2C272.5 117.2 270.9 112.4 272.8 108.4C274.8 104.5 279.6 102.9 283.6 104.8L331.6 128.8z"/></svg>
